src/shared/assets/images/bg-card.svg

<svg height="320" viewBox="0 0 266 320" width="266" xmlns="http://www.w3.org/2000/svg"><path d="m192.363706 80 29.958397 155.549715 43.677897-50.704715v67.375l-2.103381 5.950851 2.103381-.672851v142.502h-21.673l-8.066535-3.411907-.388465 3.411907h-53.097l-1.133866-3.411907-2.806134 3.411907h-56.128l10.829845-35.260859-124.65481508 19.033902 102.18847308-56.097085-111.070503-31.845958v-10.035l111.070503.000492-102.18847308-95.022493 124.65481508 55.004253-44.2797075-150.8990524 92.3839965 140.6715154z" fill="#1890ff" fill-opacity=".7" fill-rule="evenodd" transform="translate(0 -80)"/></svg>

<svg width="266px" height="320px" viewBox="0 0 266 320" version="1.1" xmlns="http://www.w3.org/2000/svg" xmlns:xlink="http://www.w3.org/1999/xlink">
    <g id="Screens" stroke="none" stroke-width="1" fill="none" fill-rule="evenodd" fill-opacity="0.7">
        <g id="Styleguide" transform="translate(-682.000000, -1538.000000)" fill="#1890FF">
            <g id="Flipside" transform="translate(682.000000, 1458.000000)">
                <path d="M192.363706,80 L222.322103,235.549715 L266,184.845 L266,252.22 L263.896619,258.170851 L266,257.498 L266,400 L244.327,400 L236.260465,396.588093 L235.872,400 L182.775,400 L181.641134,396.588093 L178.835,400 L122.707,400 L133.536845,364.739141 L8.88202992,383.773043 L111.070503,327.675958 L0,295.83 L0,285.795 L111.070503,285.795492 L8.88202992,190.772999 L133.536845,245.777252 L89.2571375,94.8781996 L181.641134,235.549715 L192.363706,80 Z" id="Combined-Shape"></path>
            </g>
        </g>
    </g>
</svg>
